assets/img/icon_truck_.svg

<svg width="65" height="65" viewBox="0 0 65 65" fill="none" xmlns="http://www.w3.org/2000/svg">
<path d="M35.5233 40.814H2.26744C1.02791 40.814 0 39.786 0 38.5465V14.3605C0 6.43954 6.43954 0 14.3605 0H41.5698C42.8093 0 43.8372 1.02791 43.8372 2.26744V32.5C43.8372 37.0954 40.1186 40.814 35.5233 40.814ZM4.53488 36.2791H35.5233C37.6093 36.2791 39.3023 34.586 39.3023 32.5V4.53488H14.3605C8.94884 4.53488 4.53488 8.94884 4.53488 14.3605V36.2791Z" fill="#292D32"/>
<path d="M53.6628 58.9535H50.6395C49.4 58.9535 48.3721 57.9256 48.3721 56.6861C48.3721 54.6 46.6791 52.907 44.593 52.907C42.507 52.907 40.814 54.6 40.814 56.6861C40.814 57.9256 39.786 58.9535 38.5465 58.9535H26.4535C25.214 58.9535 24.186 57.9256 24.186 56.6861C24.186 54.6 22.493 52.907 20.407 52.907C18.3209 52.907 16.6279 54.6 16.6279 56.6861C16.6279 57.9256 15.6 58.9535 14.3605 58.9535H11.3372C5.07907 58.9535 0 53.8744 0 47.6163V38.5465C0 37.307 1.02791 36.2791 2.26744 36.2791H35.5233C37.6093 36.2791 39.3023 34.5861 39.3023 32.5V11.3372C39.3023 10.0977 40.3302 9.06977 41.5698 9.06977H47.1326C50.1256 9.06977 52.8767 10.6721 54.3581 13.2721L59.5279 22.3116C59.9209 23.007 59.9209 23.8837 59.5279 24.5791C59.1349 25.2744 58.3791 25.6977 57.5628 25.6977H53.6628C53.2395 25.6977 52.907 26.0302 52.907 26.4535V35.5233C52.907 35.9465 53.2395 36.2791 53.6628 36.2791H62.7326C63.9721 36.2791 65 37.307 65 38.5465V47.6163C65 53.8744 59.9209 58.9535 53.6628 58.9535ZM52.6046 54.4186H53.6628C57.4116 54.4186 60.4651 51.3651 60.4651 47.6163V40.814H53.6628C50.7605 40.814 48.3721 38.4256 48.3721 35.5233V26.4535C48.3721 23.5512 50.7302 21.1628 53.6628 21.1628L50.4279 15.5093C49.7628 14.3302 48.493 13.6047 47.1326 13.6047H43.8372V32.5C43.8372 37.0954 40.1186 40.814 35.5233 40.814H4.53488V47.6163C4.53488 51.3651 7.58837 54.4186 11.3372 54.4186H12.3954C13.3931 50.9419 16.5977 48.3721 20.407 48.3721C24.2163 48.3721 27.4209 50.9419 28.4186 54.4186H36.6116C37.6093 50.9419 40.814 48.3721 44.6233 48.3721C48.4326 48.3721 51.607 50.9419 52.6046 54.4186Z" fill="#292D32"/>
<path d="M20.407 65C15.8116 65 12.093 61.2814 12.093 56.686C12.093 52.0907 15.8116 48.3721 20.407 48.3721C25.0023 48.3721 28.7209 52.0907 28.7209 56.686C28.7209 61.2814 25.0023 65 20.407 65ZM20.407 52.907C18.3209 52.907 16.6279 54.6 16.6279 56.686C16.6279 58.7721 18.3209 60.4651 20.407 60.4651C22.493 60.4651 24.186 58.7721 24.186 56.686C24.186 54.6 22.493 52.907 20.407 52.907Z" fill="#292D32"/>
<path d="M44.593 65C39.9977 65 36.2791 61.2814 36.2791 56.686C36.2791 52.0907 39.9977 48.3721 44.593 48.3721C49.1884 48.3721 52.907 52.0907 52.907 56.686C52.907 61.2814 49.1884 65 44.593 65ZM44.593 52.907C42.507 52.907 40.8139 54.6 40.8139 56.686C40.8139 58.7721 42.507 60.4651 44.593 60.4651C46.6791 60.4651 48.3721 58.7721 48.3721 56.686C48.3721 54.6 46.6791 52.907 44.593 52.907Z" fill="#292D32"/>
<path d="M62.7325 40.814H53.6628C50.7604 40.814 48.3721 38.4256 48.3721 35.5233V26.4535C48.3721 23.5512 50.7604 21.1628 53.6628 21.1628H57.5628C58.3791 21.1628 59.1349 21.5861 59.5279 22.3116L64.6977 31.3814C64.879 31.714 65 32.107 65 32.5V38.5465C65 39.7861 63.9721 40.814 62.7325 40.814ZM53.6628 25.6977C53.2395 25.6977 52.907 26.0302 52.907 26.4535V35.5233C52.907 35.9465 53.2395 36.2791 53.6628 36.2791H60.4651V33.1047L56.2325 25.6977H53.6628Z" fill="#292D32"/>
</svg>

<svg xmlns="http://www.w3.org/2000/svg" width="65" height="65" fill="none"><path fill="#292D32" d="M35.523 40.814H2.267A2.284 2.284 0 0 1 0 38.547V14.36C0 6.44 6.44 0 14.36 0h27.21a2.284 2.284 0 0 1 2.267 2.267V32.5a8.31 8.31 0 0 1-8.314 8.314ZM4.535 36.279h30.988a3.78 3.78 0 0 0 3.78-3.779V4.535H14.36c-5.412 0-9.826 4.414-9.826 9.825v21.92Z"/><path fill="#292D32" d="M53.663 58.953H50.64a2.284 2.284 0 0 1-2.268-2.267 3.78 3.78 0 0 0-3.779-3.779 3.78 3.78 0 0 0-3.779 3.78 2.284 2.284 0 0 1-2.267 2.267H26.454a2.284 2.284 0 0 1-2.268-2.268 3.78 3.78 0 0 0-3.779-3.779 3.78 3.78 0 0 0-3.78 3.78 2.284 2.284 0 0 1-2.266 2.267h-3.024C5.08 58.953 0 53.873 0 47.615v-9.07a2.284 2.284 0 0 1 2.267-2.267h33.256a3.78 3.78 0 0 0 3.78-3.779V11.337A2.284 2.284 0 0 1 41.57 9.07h5.563a8.308 8.308 0 0 1 7.225 4.202l5.17 9.04a2.328 2.328 0 0 1 0 2.267c-.393.695-1.149 1.119-1.965 1.119h-3.9a.748.748 0 0 0-.756.755v9.07c0 .423.333.756.756.756h9.07A2.284 2.284 0 0 1 65 38.546v9.07c0 6.258-5.08 11.337-11.337 11.337Zm-1.058-4.534h1.058c3.749 0 6.802-3.054 6.802-6.803v-6.802h-6.802c-2.902 0-5.29-2.388-5.29-5.29v-9.07a5.296 5.296 0 0 1 5.29-5.291l-3.235-5.654a3.784 3.784 0 0 0-3.295-1.904h-3.296V32.5a8.31 8.31 0 0 1-8.314 8.314H4.535v6.802c0 3.75 3.053 6.803 6.802 6.803h1.058c.998-3.477 4.203-6.047 8.012-6.047 3.81 0 7.014 2.57 8.012 6.047h8.193c.997-3.477 4.202-6.047 8.011-6.047 3.81 0 6.984 2.57 7.982 6.047Z"/><path fill="#292D32" d="M20.407 65a8.31 8.31 0 0 1-8.314-8.314 8.31 8.31 0 0 1 8.314-8.314 8.31 8.31 0 0 1 8.314 8.314A8.31 8.31 0 0 1 20.407 65Zm0-12.093a3.78 3.78 0 0 0-3.78 3.779 3.78 3.78 0 0 0 3.78 3.78 3.78 3.78 0 0 0 3.779-3.78 3.78 3.78 0 0 0-3.779-3.779ZM44.593 65a8.31 8.31 0 0 1-8.314-8.314 8.31 8.31 0 0 1 8.314-8.314 8.31 8.31 0 0 1 8.314 8.314A8.31 8.31 0 0 1 44.593 65Zm0-12.093a3.78 3.78 0 0 0-3.78 3.779 3.78 3.78 0 0 0 3.78 3.78 3.78 3.78 0 0 0 3.78-3.78 3.78 3.78 0 0 0-3.78-3.779ZM62.733 40.814h-9.07c-2.903 0-5.29-2.388-5.29-5.29v-9.07c0-2.903 2.387-5.291 5.29-5.291h3.9c.816 0 1.572.423 1.965 1.149l5.17 9.07c.181.332.302.725.302 1.118v6.047a2.284 2.284 0 0 1-2.267 2.267Zm-9.07-15.116a.748.748 0 0 0-.756.755v9.07c0 .423.333.756.756.756h6.802v-3.174l-4.233-7.407h-2.57Z"/></svg>
